X: 1
T: Bo's Tune
M: 4/4
L: 1/8
R: reel
K: Emin
EAAB c2 dc | BG (3GGG AF (3FFF | EAAB c2 dc | BAGB A2 A2 :|
eA (3AAA g2 f2 | eA (3AAA B2 G2 | eA (3AAA g2 f2 | BA G2 AB d2| eA (3AAA g2 f2 | eA (3AAA B2 G2 | EAAB c2 dc | BAGB A2 AG ||
